src/topics/icons/eslint.svg

<svg height="225" preserveAspectRatio="xMidYMid" viewBox="0 0 256 225" width="256" xmlns="http://www.w3.org/2000/svg"><path d="m77.9645944 80.5683518 48.5703096-28.0418525c1.215461-.7019991 2.713728-.7019991 3.929189 0l48.571313 28.0418525c1.214458.701999 1.964594 1.9986915 1.964594 3.4026895v56.0837047c0 1.402996-.750136 2.700691-1.964594 3.403693l-48.571313 28.041852c-1.215461.701999-2.713728.701999-3.929189 0l-48.5703096-28.041852c-1.2154612-.701999-1.9645944-1.999695-1.9645944-3.403693v-56.0837047c.0010029-1.403998.7501361-2.7006905 1.9645944-3.4026895" fill="#8080f2"/><path d="m254.4167 107.416596-58.093559-101.06679208c-2.11023-3.65427451-6.008432-6.34980392-10.227888-6.34980392h-116.1891259c-4.2204594 0-8.1196659 2.69552941-10.2298956 6.34980392l-58.09355923 100.84392108c-2.11022969 3.655279-2.11022969 8.268299 0 11.923577l58.09355923 100.238557c2.1102297 3.654274 6.0094362 5.522572 10.2298956 5.522572h116.1881219c4.219456 0 8.118662-1.812078 10.227888-5.467356l58.093559-100.402197c2.112238-3.65327 2.112238-7.938007.001004-11.592282zm-48.104603 48.599843c0 1.485804-.894488 2.860173-2.182512 3.604079l-73.998587 42.693772c-1.287019.742902-2.899307.742902-4.186326 0l-74.0558105-42.693772c-1.2870193-.743906-2.1875312-2.117271-2.1875312-3.604079v-85.3885488c0-1.4868078.887461-2.8601726 2.1754842-3.6040784l73.9955755-42.6937726c1.287019-.7439059 2.897299-.7439059 4.184318 0l74.06083 42.6937726c1.288024.7439058 2.194559 2.1172706 2.194559 3.6040784z" fill="#4b32c3"/></svg>

<?xml version="1.0" encoding="UTF-8" standalone="no"?>
<svg width="256px" height="225px" viewBox="0 0 256 225" version="1.1" xmlns="http://www.w3.org/2000/svg" xmlns:xlink="http://www.w3.org/1999/xlink" preserveAspectRatio="xMidYMid">
	<g>
		<path d="M77.9645944,80.5683518 L126.534904,52.5264993 C127.750365,51.8245002 129.248632,51.8245002 130.464093,52.5264993 L179.035406,80.5683518 C180.249864,81.2703508 181,82.5670433 181,83.9710413 L181,140.054746 C181,141.457742 180.249864,142.755437 179.035406,143.458439 L130.464093,171.500291 C129.248632,172.20229 127.750365,172.20229 126.534904,171.500291 L77.9645944,143.458439 C76.7491332,142.75644 76,141.458744 76,140.054746 L76,83.9710413 C76.0010029,82.5670433 76.7501361,81.2703508 77.9645944,80.5683518" fill="#8080F2"></path>
		<path d="M254.4167,107.416596 L196.323141,6.34980392 C194.212911,2.69552941 190.314709,-1.42108547e-14 186.095253,-1.42108547e-14 L69.9061271,-1.42108547e-14 C65.6856677,-1.42108547e-14 61.7864612,2.69552941 59.6762315,6.34980392 L1.58267227,107.193725 C-0.527557422,110.849004 -0.527557422,115.462024 1.58267227,119.117302 L59.6762315,219.355859 C61.7864612,223.010133 65.6856677,224.878431 69.9061271,224.878431 L186.094249,224.878431 C190.313705,224.878431 194.212911,223.066353 196.322137,219.411075 L254.415696,119.008878 C256.527934,115.355608 256.527934,111.070871 254.4167,107.416596 L254.4167,107.416596 Z M206.312097,156.016439 C206.312097,157.502243 205.417609,158.876612 204.129585,159.620518 L130.130998,202.31429 C128.843979,203.057192 127.231691,203.057192 125.944672,202.31429 L51.8888615,159.620518 C50.6018422,158.876612 49.7013303,157.503247 49.7013303,156.016439 L49.7013303,70.6278902 C49.7013303,69.1410824 50.5887913,67.7677176 51.8768145,67.0238118 L125.87239,24.3300392 C127.159409,23.5861333 128.769689,23.5861333 130.056708,24.3300392 L204.117538,67.0238118 C205.405562,67.7677176 206.312097,69.1410824 206.312097,70.6278902 L206.312097,156.016439 L206.312097,156.016439 Z" fill="#4B32C3"></path>
	</g>
</svg>
